assets/Registered/Flat/registered_flat.svg

<svg xmlns="http://www.w3.org/2000/svg" width="32" height="32" fill="none"><path fill="#321B41" d="M18.99 22.6c.21.35.58.57.99.57.9 0 1.46-.98.96-1.73l-1.35-2.22c-.21-.32-.4-.59-.57-.82a5.82 5.82 0 0 0-.52-.63c-.17-.18-.35-.37-.55-.54-.2-.17-.43-.33-.69-.48v-.04c.5-.12.94-.3 1.33-.53.39-.24.73-.51 1.01-.84.28-.33.49-.7.64-1.12.15-.42.23-.88.23-1.38 0-.65-.12-1.2-.36-1.68-.23-.48-.57-.88-.99-1.2-.42-.32-.92-.56-1.49-.72-.57-.16-1.19-.24-1.87-.24h-3.89c-.52.03-.84.23-.87.87v12.09c0 .67.54 1.2 1.2 1.2.67 0 1.2-.54 1.2-1.2v-4.54h.97c.31 0 .58.03.82.11s.46.19.67.35c.21.16.41.36.61.61.2.24.4.54.61.89l1.91 3.22Zm-5.58-7.08v-4.6h2c.83 0 1.45.19 1.89.57.44.38.66.91.66 1.59 0 .38-.06.72-.19 1.02-.12.3-.3.56-.53.77-.23.21-.5.37-.81.48-.31.11-.65.17-1.02.17h-2Z"/><path fill="#321B41" d="M2 16c0 7.72 6.28 14 14 14s14-6.28 14-14S23.72 2 16 2 2 8.28 2 16Zm3 0C5 9.93 9.93 5 16 5c6.06 0 11 4.93 11 11s-4.93 11-11 11S5 22.06 5 16Z"/></svg>

<svg width="32" height="32" viewBox="0 0 32 32" fill="none" xmlns="http://www.w3.org/2000/svg">
<path d="M18.99 22.6C19.2 22.95 19.57 23.17 19.98 23.17C20.88 23.17 21.44 22.19 20.94 21.44L19.59 19.22C19.38 18.9 19.19 18.63 19.02 18.4C18.85 18.16 18.67 17.95 18.5 17.77C18.33 17.59 18.15 17.4 17.95 17.23C17.75 17.06 17.52 16.9 17.26 16.75V16.71C17.76 16.59 18.2 16.41 18.59 16.18C18.98 15.94 19.32 15.67 19.6 15.34C19.88 15.01 20.09 14.64 20.24 14.22C20.39 13.8 20.47 13.34 20.47 12.84C20.47 12.19 20.35 11.64 20.11 11.16C19.88 10.68 19.54 10.28 19.12 9.96C18.7 9.64 18.2 9.4 17.63 9.24C17.06 9.08 16.44 9 15.76 9H11.87C11.35 9.03 11.03 9.23 11 9.87V21.96C11 22.63 11.54 23.16 12.2 23.16C12.87 23.16 13.4 22.62 13.4 21.96V17.42H14.37C14.68 17.42 14.95 17.45 15.19 17.53C15.43 17.61 15.65 17.72 15.86 17.88C16.07 18.04 16.27 18.24 16.47 18.49C16.67 18.73 16.87 19.03 17.08 19.38L18.99 22.6ZM13.41 15.52V10.92H15.41C16.24 10.92 16.86 11.11 17.3 11.49C17.74 11.87 17.96 12.4 17.96 13.08C17.96 13.46 17.9 13.8 17.77 14.1C17.65 14.4 17.47 14.66 17.24 14.87C17.01 15.08 16.74 15.24 16.43 15.35C16.12 15.46 15.78 15.52 15.41 15.52H13.41Z" fill="#321B41"/>
<path d="M2 16C2 23.72 8.28 30 16 30C23.72 30 30 23.72 30 16C30 8.28 23.72 2 16 2C8.28 2 2 8.28 2 16ZM5 16C5 9.93 9.93 5 16 5C22.06 5 27 9.93 27 16C27 22.07 22.07 27 16 27C9.93 27 5 22.06 5 16Z" fill="#321B41"/>
</svg>
